X:1
T:Johnny Leary's
R:polka
M:2/4
L:1/8
K:D
de|:fe/f/ ge|fe/f/ ge|fd ed|e/f/e/d/ BA|
|fe/f/ ge|fe/f/ ge|fd e/f/e/c/|1 df de:|2 df dB|]
|:A>F AB|Af af|e>d ef/e/|dA B/c/d/B/|
|A>F AB|Af af|ef gb|1 ef/e/ dB:|2 ef/e/ de|]